static/site/images/special-projects/autoclave/svg/grid-bg-mobile.svg

<svg width="76" height="42" viewBox="0 0 76 42" fill="none" xmlns="http://www.w3.org/2000/svg">
<g clip-path="url(#clip0)">
<path d="M375 0H0V1251.84H375V0Z" fill="#FAFCFF"/>
<path d="M38.4917 21.3799L75.5241 42.2409L38.4917 21.3799Z" stroke="#F0F8FF" stroke-width="2" stroke-miterlimit="10"/>
<path d="M1.45898 0.521973L38.4704 21.37L1.45898 0.521973Z" stroke="#F0F8FF" stroke-width="2" stroke-miterlimit="10"/>
<path d="M75.5483 42.252L112.542 63.088L75.5483 42.252Z" stroke="#F0F8FF" stroke-width="2" stroke-miterlimit="10"/>
<path d="M112.563 21.406H112.556L75.5239 42.245L75.5439 42.256L112.563 21.406Z" stroke="#F0F8FF" stroke-width="2" stroke-miterlimit="10"/>
<path d="M112.556 21.4L75.4951 0.528L76.4314 0L75.4941 0.528L74.5568 0L75.4941 0.528L70.8276 3.158L75.4951 0.528L112.556 21.4Z" stroke="#F0F8FF" stroke-width="2" stroke-miterlimit="10"/>
<path d="M70.8276 3.15796C61.7052 8.29596 50.0655 14.841 38.4717 21.369L38.4916 21.38L70.8276 3.15796Z" stroke="#F0F8FF" stroke-width="2" stroke-miterlimit="10"/>
<path d="M38.4704 21.3701C24.6237 29.1651 10.8349 36.9371 1.45898 42.2501L38.4913 21.3821L38.4704 21.3701Z" stroke="#F0F8FF" stroke-width="2" stroke-miterlimit="10"/>
<path d="M75.4678 125.659L38.5004 104.839L75.5417 83.9729L112.519 104.798L75.5437 83.9719L112.576 63.1109L112.541 63.0909C100.18 70.0529 87.8356 77.0066 75.5088 83.9519L38.5054 63.1139L75.5457 42.2539L75.5257 42.2429C63.0885 49.2429 50.6582 56.2429 38.4824 63.1009L1.45903 42.2499L38.4814 63.1059C25.7666 70.2689 13.3273 77.2809 1.45703 83.9829L38.5044 63.1189L75.5078 83.9589C63.0944 90.9503 50.751 97.9059 38.4774 104.826L1.45903 83.9779L38.4784 104.826C26.0125 111.855 13.6727 118.815 1.45903 125.706L38.5014 104.839L75.4678 125.659Z" stroke="#F0F8FF" stroke-width="2" stroke-miterlimit="10"/>
</g>
<defs>
<clipPath id="clip0">
<rect width="76" height="42" fill="white"/>
</clipPath>
</defs>
</svg>

<svg width="76" height="42" fill="none" xmlns="http://www.w3.org/2000/svg"><g clip-path="url(#clip0)"><path d="M375 0H0v1251.84h375V0z" fill="#FAFCFF"/><path d="M38.492 21.38l37.032 20.86-37.032-20.86zM1.459.522L38.47 21.37 1.46.522zm74.089 41.73l36.994 20.836-36.994-20.836zm37.015-20.846h-.007L75.524 42.245l.02.011 37.019-20.85zm-.007-.006L75.496.528 76.43 0l-.937.528L74.557 0l.937.528-4.666 2.63 4.667-2.63L112.556 21.4z" stroke="#F0F8FF" stroke-width="2" stroke-miterlimit="10"/><path d="M70.828 3.158c-9.123 5.138-20.763 11.683-32.356 18.211l.02.011L70.828 3.158zM38.47 21.37A17055.702 17055.702 0 001.46 42.25l37.032-20.868-.02-.012zm36.998 104.289L38.5 104.839l37.042-20.866 36.977 20.825-36.975-20.826 37.032-20.861-.035-.02-37.032 20.86-37.004-20.837 37.04-20.86-.02-.011c-12.437 7-24.867 14-37.043 20.858L1.46 42.25l37.022 20.856A45450.984 45450.984 0 001.457 83.983l37.047-20.864 37.004 20.84a92425.842 92425.842 0 00-37.03 20.867L1.458 83.978l37.02 20.848c-12.466 7.029-24.806 13.989-37.02 20.88L38.5 104.839l36.967 20.82z" stroke="#F0F8FF" stroke-width="2" stroke-miterlimit="10"/></g><defs><clipPath id="clip0"><path fill="#fff" d="M0 0h76v42H0z"/></clipPath></defs></svg>
